X:309
T:Mona's Delight
M:4/4
L:1/8
K:G
D2|G2GA B2AG|A2AB c2BA|G2GB d2BG|AF D2 AFD2|
G2GA B2AG|A2AB c2BA|BdBG AcAF|1G2G2G2:|2G2G2G4|]
d2dc Bc d2|c2cB AB c2|d2dc BcdB|A2F2D4|
d2dc Bc d2|c2cB AB c2|BdBG AcAF|G2G2G4:|]
